packages/foundations/assets/icons/functional/images/editing/save_12.svg

<svg width="12" height="12" viewBox="0 0 12 12" fill="none" xmlns="http://www.w3.org/2000/svg">
<g clip-path="url(#clip0_231_202)">
<path fill-rule="evenodd" clip-rule="evenodd" d="M8.04001 1.19995C8.17199 1.19982 8.30033 1.2432 8.40515 1.32338L10.6243 3.53567C10.7195 3.63571 10.781 3.76313 10.8 3.89995V9.59995C10.8 10.2325 10.2 10.8 9.60001 10.8H2.40001C1.76744 10.8 1.20001 10.2 1.20001 9.59995V2.39995C1.20001 1.76738 1.80001 1.19995 2.40001 1.19995H8.04001ZM3.60001 2.39995H2.40001V9.59995H3.60001V7.19995C3.60001 6.89224 3.90001 6.59995 4.20001 6.59995H7.80001C8.10773 6.59995 8.40001 6.89995 8.40001 7.19995V9.59995H9.60001V4.20852L7.79058 2.39995H7.20001V3.59995C7.20001 3.90767 6.90001 4.19995 6.60001 4.19995H4.20001C3.8923 4.19995 3.60001 3.89995 3.60001 3.59995V2.39995ZM7.20001 7.79995H4.80001V9.59995H7.20001V7.79995Z" fill="#1A1C1F"/>
</g>
<defs>
<clipPath id="clip0_231_202">
<rect width="12" height="12" fill="white"/>
</clipPath>
</defs>
</svg>

<svg xmlns="http://www.w3.org/2000/svg" width="12" height="12" fill="none"><g clip-path="url(#a)"><path fill="#1A1C1F" fill-rule="evenodd" d="M8.04 1.2a.6.6 0 0 1 .365.123l2.22 2.213a.66.66 0 0 1 .175.364v5.7c0 .633-.6 1.2-1.2 1.2H2.4c-.633 0-1.2-.6-1.2-1.2V2.4c0-.633.6-1.2 1.2-1.2zM3.6 2.4H2.4v7.2h1.2V7.2c0-.308.3-.6.6-.6h3.6c.308 0 .6.3.6.6v2.4h1.2V4.209L7.79 2.4H7.2v1.2c0 .308-.3.6-.6.6H4.2c-.308 0-.6-.3-.6-.6zm3.6 5.4H4.8v1.8h2.4z" clip-rule="evenodd"/></g><defs><clipPath id="a"><path fill="#fff" d="M0 0h12v12H0z"/></clipPath></defs></svg>
